svgs/regular/face-clouds.svg

<svg xmlns="http://www.w3.org/2000/svg" viewBox="0 0 640 512"><!--! Font Awesome Pro 6.4.2 by @fontawesome - https://fontawesome.com License - https://fontawesome.com/license (Commercial License) Copyright 2023 Fonticons, Inc. --><path d="M128 0c27.9 0 51.7 17.9 60.4 42.8C198.6 36 210.8 32 224 32c35.3 0 64 28.7 64 64s-28.7 64-64 64H64C28.7 160 0 131.3 0 96S28.7 32 64 32h8.6C83.6 12.9 104.3 0 128 0zM72.1 192h50c-6.5 20.2-10 41.7-10 64c0 80.2 45.4 149.9 112 184.6c.1 22.3 7.2 42.9 19.3 59.7C139.4 467.7 64 370.6 64 256c0-22.1 2.8-43.5 8.1-64zM307.4 48.4C296.8 29.8 280.1 15.2 260.1 7c19.2-4.6 39.2-7 59.9-7C461.4 0 576 114.6 576 256c0 14.8-1.3 29.3-3.7 43.5c-12.5-10.8-28.3-17.8-45.7-19.2c.9-8 1.4-16.1 1.4-24.3c0-114.9-93.1-208-208-208c-4.2 0-8.4 .1-12.6 .4zM208.4 208a32 32 0 1 1 64 0 32 32 0 1 1 -64 0zm192-32a32 32 0 1 1 0 64 32 32 0 1 1 0-64zM336 368c0-44.2 35.8-80 80-80c29.3 0 54.9 15.8 68.9 39.3c8.8-9.4 21.3-15.3 35.1-15.3c26.5 0 48 21.5 48 48c0 2.7-.2 5.4-.7 8h.7c39.8 0 72 32.2 72 72s-32.2 72-72 72H328c-39.8 0-72-32.2-72-72s32.2-72 72-72h8z"/></svg>

<svg xmlns="http://www.w3.org/2000/svg" viewBox="0 0 640 512"><!--! Font Awesome Pro 6.1.1 by @fontawesome - https://fontawesome.com License - https://fontawesome.com/license (Commercial License) Copyright 2022 Fonticons, Inc. --><path d="M188.4 42.8C198.6 35.98 210.8 32 224 32C259.3 32 288 60.65 288 96C288 131.3 259.3 160 224 160H64C28.65 160 0 131.3 0 96C0 60.65 28.65 32 64 32H72.56C83.63 12.87 104.3 0 128 0C155.9 0 179.7 17.87 188.4 42.8zM122 192C115.5 212.2 112 233.7 112 256C112 336.2 157.4 405.9 224 440.6C224.1 462.8 231.2 483.4 243.3 500.3C139.4 467.7 64 370.6 64 256C64 233.9 66.8 212.5 72.06 192L122 192zM307.4 48.38C296.8 29.83 280.1 15.16 260.1 7.036C279.3 2.436 299.4 0 320 0C461.4 0 576 114.6 576 256C576 270.8 574.7 285.3 572.3 299.5C559.9 288.7 544 281.7 526.6 280.3C527.5 272.3 528 264.2 528 256C528 141.1 434.9 48 320 48C315.8 48 311.6 48.13 307.4 48.38V48.38zM272.4 208C272.4 225.7 258 240 240.4 240C222.7 240 208.4 225.7 208.4 208C208.4 190.3 222.7 176 240.4 176C258 176 272.4 190.3 272.4 208zM368.4 208C368.4 190.3 382.7 176 400.4 176C418 176 432.4 190.3 432.4 208C432.4 225.7 418 240 400.4 240C382.7 240 368.4 225.7 368.4 208zM336 368C336 323.8 371.8 288 416 288C445.3 288 470.9 303.8 484.9 327.3C493.6 317.9 506.1 312 520 312C546.5 312 568 333.5 568 360C568 362.7 567.8 365.4 567.3 368H568C607.8 368 640 400.2 640 440C640 479.8 607.8 512 568 512H328C288.2 512 256 479.8 256 440C256 400.2 288.2 368 328 368H336z"/></svg>
